X:16
T:Hearty Boys of Ballymote
S:Bernie Waugh
R:Jig
M:6/8
L:1/8
K:E Dor
EF|:\
"Em"GEE B,EE|"D"~F3 DFA|"C"GEE B,EE|"Bm"~FED E2F|
"Am"GEE B,EE|"Bm"~F3 DFA|"Am"Bee "Bm"B/c/dB|1\
"C"AFD "D"E2F:|2"C"AFD "A"E2c||
|:\
"D"d2d {e}dcB|AFD FA/A/A|"Em"Be/e/e "F#m"ede|"G"~fed "A"B2A|
"D"~d2d dcB|AFD FGA|"Em"Bee "F#m"B/c/dB|1\
"G"AFD "A"E2c:|2"G"AFD "Em"E3|]

